X:221
T: DER WAECHTER AUF DEM THURME SASS
N: E0812A
O: Europa, Mitteleuropa, Deutschland, Westerwald
R: Tage -, Kilt - Lied, Waechter - Lied
M: 2/4
L: 1/16
K: G
D2 | G2G2A2d2 | B2BAG2
Bc | d2d2e2e2 | d3cB2
Bc | d2d2d2ed | d2c2c2
d2 | B2B2d2cB | B2A2A2
D2 | G2G2A2A2 | B4d2B2 | A8 | G4z2

